X: 4
T: Arra Mountains
R: slip jig
M: 9/8
L: 1/8
K: Ador
|: E2 A EAB cBc | E2 A EAF GED |\
E2 A EAB c2 d | e2 e ege dBG :|
|: A2 a gef gfg | A2 a ged Bcd |\
[1 A2 a gef g2 e | d2 d ege dBG :|
[2 e2 e faf g2 e | d2 d ege dBG |]


